X:156
T:New Rant. (p)1657.PLFD.157
M:6/4
L:1/4
Q:3/4=100
S:Playford, Dancing Master,Supplement to 3rd Ed.,1657
O:England
H:1657.
Z:Chris Partington.
K:Bb
B2GBFG/A/|B2GFDF|B2FBc>d|d3-d3:|
|:d2cdfg|f>ed/e/cBc|d>GF/E/Dc>d|B3-B3:|
